hosted/assets/icon/datanodes/light-mode/unused/websocket-2.svg

<svg width="50" height="50" viewBox="0 0 50 50" fill="none" xmlns="http://www.w3.org/2000/svg">
<path fill-rule="evenodd" clip-rule="evenodd" d="M0.833252 8.33331C0.833252 7.64296 1.3929 7.08331 2.08325 7.08331H22.9166C23.2481 7.08331 23.566 7.21501 23.8005 7.44943L35.2588 18.9078C35.747 19.3959 35.747 20.1874 35.2588 20.6755L32.4969 23.4375L37.3421 28.2828C37.8303 28.7709 37.8303 29.5624 37.3421 30.0505C36.854 30.5387 36.0625 30.5387 35.5744 30.0505L30.7291 25.2052L25.726 30.2083L31.0921 35.5744C31.5803 36.0626 31.5803 36.854 31.0921 37.3422C30.604 37.8304 29.8125 37.8304 29.3244 37.3422L23.9583 31.9761L20.6755 35.2589C20.1873 35.747 19.3959 35.747 18.9077 35.2589L7.44937 23.8005C7.21495 23.5661 7.08325 23.2482 7.08325 22.9166V17.7083C7.08325 17.018 7.6429 16.4583 8.33325 16.4583C9.02361 16.4583 9.58325 17.018 9.58325 17.7083V22.3989L19.7916 32.6072L32.6072 19.7916L22.3988 9.58331H2.08325C1.3929 9.58331 0.833252 9.02367 0.833252 8.33331ZM36.616 15.7828C37.1042 15.2946 37.8956 15.2946 38.3838 15.7828L43.5921 20.9911C43.8266 21.2255 43.9583 21.5435 43.9583 21.875V36.4583C43.9583 37.1487 43.3986 37.7083 42.7083 37.7083C42.0179 37.7083 41.4583 37.1487 41.4583 36.4583V22.3927L36.616 17.5505C36.1279 17.0624 36.1279 16.2709 36.616 15.7828ZM15.7827 35.5744C16.2709 35.0863 17.0623 35.0863 17.5505 35.5744L23.4344 41.4583H46.8749C47.5653 41.4583 48.1249 42.018 48.1249 42.7083C48.1249 43.3987 47.5653 43.9583 46.8749 43.9583H22.9166C22.5851 43.9583 22.2671 43.8266 22.0327 43.5922L15.7827 37.3422C15.2945 36.854 15.2945 36.0626 15.7827 35.5744Z" fill="black"/>
</svg>

<svg width="50" height="50" fill="none" xmlns="http://www.w3.org/2000/svg"><path fill-rule="evenodd" clip-rule="evenodd" d="M.833 8.333c0-.69.56-1.25 1.25-1.25h20.834c.331 0 .649.132.883.366l11.46 11.459a1.25 1.25 0 010 1.767l-2.762 2.762 4.845 4.846a1.25 1.25 0 11-1.768 1.767l-4.845-4.845-5.003 5.003 5.366 5.366a1.25 1.25 0 11-1.768 1.768l-5.366-5.366-3.282 3.283a1.25 1.25 0 01-1.768 0L7.449 23.8a1.25 1.25 0 01-.366-.883v-5.209a1.25 1.25 0 012.5 0v4.69l10.209 10.21 12.815-12.816L22.4 9.583H2.083c-.69 0-1.25-.56-1.25-1.25zm35.783 7.45a1.25 1.25 0 011.768 0l5.208 5.208c.235.235.366.553.366.884v14.583a1.25 1.25 0 01-2.5 0V22.393l-4.842-4.843a1.25 1.25 0 010-1.767zM15.783 35.574a1.25 1.25 0 011.768 0l5.883 5.884h23.44a1.25 1.25 0 010 2.5H22.918a1.25 1.25 0 01-.884-.366l-6.25-6.25a1.25 1.25 0 010-1.768z" fill="#000"/></svg>
